svgs/light/square-phone-flip.svg

<svg xmlns="http://www.w3.org/2000/svg" viewBox="0 0 448 512"><!--! Font Awesome Pro 6.0.0-alpha3 by @fontawesome - https://fontawesome.com License - https://fontawesome.com/license (Commercial License) --><path d="M384 32H64C28.65 32 0 60.66 0 96v320c0 35.34 28.65 64 64 64h320c35.35 0 64-28.66 64-64V96C448 60.66 419.3 32 384 32zM416 416c0 17.64-14.36 32-32 32H64c-17.64 0-32-14.36-32-32V96c0-17.64 14.36-32 32-32h320c17.64 0 32 14.36 32 32V416zM331.1 131.2l-44.19-10.25c-17.52-3.984-35.44 5-42.58 21.52L223.8 190.3c-6.562 15.34-2.312 32.78 10.55 43.41l8.266 6.781C233.5 253.9 221.9 265.5 208.4 274.7L201.7 266.5C191.4 253.9 173.6 249.4 158.4 255.8L110.5 276.3c-.0156 .0156 .0313-.0156 0 0c-16.47 7.172-25.55 25.06-21.54 42.56l10.2 44.28C103.1 380.1 118 392 135.5 392C259.3 392 360 291.3 360 167.5C360 149.1 348.1 135.1 331.1 131.2zM135.5 360c-2.5 0-4.562-1.625-5.125-4.062L120.1 311.7c-.5625-2.438 .7187-4.969 3.047-6l47.66-20.44C172.9 284.4 175.5 285 176.9 286.7l15.58 19.02c4.859 5.906 13.25 7.594 20.03 3.906c27.59-15.03 50.13-37.55 65.13-65.13c3.672-6.75 2.031-15.16-3.906-20.03l-18.98-15.56c-1.844-1.516-2.406-3.875-1.453-6.109l20.44-47.7C274.5 153.2 276.5 152 278.5 152c.375 0 .75 .0469 1.125 .1406l44.25 10.27C326.4 162.1 328 165 328 167.5C328 273.6 241.6 360 135.5 360z"/></svg>

<svg xmlns="http://www.w3.org/2000/svg" viewBox="0 0 448 512"><!-- Font Awesome Pro 6.0.0-alpha2 by @fontawesome - https://fontawesome.com License - https://fontawesome.com/license (Commercial License) --><path d="M384 32H64C28.654 32 0 60.656 0 96V416C0 451.344 28.654 480 64 480H384C419.346 480 448 451.344 448 416V96C448 60.656 419.346 32 384 32ZM416 416C416 433.645 401.645 448 384 448H64C46.355 448 32 433.645 32 416V96C32 78.355 46.355 64 64 64H384C401.645 64 416 78.355 416 96V416ZM331.062 131.203L286.875 120.953C269.359 116.969 251.437 125.953 244.297 142.469L223.828 190.25C217.266 205.594 221.516 223.031 234.375 233.656L242.641 240.438C233.453 253.906 221.859 265.5 208.375 274.688L201.656 266.5C191.375 253.891 173.578 249.422 158.406 255.75L110.547 276.266C110.531 276.281 110.469 276.281 110.437 276.297C93.969 283.469 84.937 301.344 88.953 318.844L99.156 363.125C103.078 380.125 118.016 392 135.469 392C259.281 392 360 291.281 360 167.469C360 149.984 348.094 135.078 331.062 131.203ZM135.469 360C132.969 360 130.906 358.375 130.344 355.938L120.141 311.656C119.578 309.219 120.859 306.688 123.187 305.656L170.844 285.219C172.875 284.406 175.453 285 176.859 286.734L192.438 305.75C197.297 311.656 205.688 313.344 212.469 309.656C240.063 294.625 262.594 272.109 277.594 244.531C281.266 237.781 279.625 229.375 273.688 224.5L254.703 208.938C252.859 207.422 252.297 205.062 253.25 202.828L273.688 155.125C274.516 153.234 276.469 152 278.531 152C278.906 152 279.281 152.047 279.656 152.141L323.906 162.406C326.375 162.969 328 165 328 167.469C328 273.625 241.625 360 135.469 360Z"/></svg>
